dist/assets/pink_LP.svg

<svg width="30" height="30" viewBox="0 0 30 30" fill="none" xmlns="http://www.w3.org/2000/svg">
<rect x="0.5" y="0.5" width="29" height="29" rx="14.5" fill="#E9407A"/>
<path d="M7.38104 20.5V10.3182H9.53374V18.7251H13.8988V20.5H7.38104ZM15.3244 20.5V10.3182H19.3414C20.1137 10.3182 20.7716 10.4657 21.3152 10.7607C21.8587 11.0523 22.273 11.4583 22.5581 11.9787C22.8464 12.4957 22.9906 13.0923 22.9906 13.7685C22.9906 14.4446 22.8448 15.0412 22.5531 15.5582C22.2614 16.0753 21.8388 16.478 21.2853 16.7663C20.7351 17.0547 20.069 17.1989 19.2868 17.1989H16.7264V15.4737H18.9387C19.353 15.4737 19.6944 15.4025 19.9629 15.2599C20.2347 15.1141 20.4368 14.9136 20.5694 14.6584C20.7053 14.3999 20.7733 14.1032 20.7733 13.7685C20.7733 13.4304 20.7053 13.1354 20.5694 12.8835C20.4368 12.6283 20.2347 12.4311 19.9629 12.2919C19.6911 12.1494 19.3464 12.0781 18.9288 12.0781H17.4771V20.5H15.3244Z" fill="white"/>
<rect x="0.5" y="0.5" width="29" height="29" rx="14.5" stroke="white"/>
</svg>

<svg xmlns="http://www.w3.org/2000/svg" width="30" height="30" fill="none"><rect width="29" height="29" x=".5" y=".5" fill="#E9407A" rx="14.5"/><path fill="#fff" d="M7.381 20.5V10.318h2.153v8.407h4.365V20.5H7.38Zm7.943 0V10.318h4.017c.773 0 1.43.148 1.974.443.544.291.958.697 1.243 1.218.288.517.433 1.113.433 1.79 0 .676-.146 1.272-.438 1.79-.292.516-.714.919-1.268 1.207-.55.289-1.216.433-1.998.433h-2.56v-1.725h2.212c.414 0 .755-.072 1.024-.214.272-.146.474-.346.606-.602.136-.258.204-.555.204-.89 0-.338-.068-.633-.204-.885a1.361 1.361 0 0 0-.606-.591c-.272-.143-.617-.214-1.034-.214h-1.452V20.5h-2.153Z"/><rect width="29" height="29" x=".5" y=".5" stroke="#fff" rx="14.5"/></svg>
